src/components/Join/Culture/assets/logo.svg

<?xml version="1.0" encoding="UTF-8"?>
<svg width="380px" height="411px" viewBox="0 0 380 411" version="1.1" xmlns="http://www.w3.org/2000/svg" xmlns:xlink="http://www.w3.org/1999/xlink">
    <!-- Generator: Sketch 47.1 (45422) - http://www.bohemiancoding.com/sketch -->
    <title>Logo</title>
    <desc>Created with Sketch.</desc>
    <defs>
        <linearGradient x1="14.9580793%" y1="0%" x2="116.400528%" y2="127.872527%" id="linearGradient-1">
            <stop stop-color="#F1F8F9" offset="0%"></stop>
            <stop stop-color="#F7F8F9" offset="100%"></stop>
            <stop stop-color="#00EFE2" offset="100%"></stop>
        </linearGradient>
        <linearGradient x1="14.9580793%" y1="0%" x2="116.400528%" y2="127.872527%" id="linearGradient-2">
            <stop stop-color="#267E8A" stop-opacity="0.4" offset="0%"></stop>
            <stop stop-color="#00EFE2" offset="95.8506059%"></stop>
            <stop stop-color="#00EFE2" offset="100%"></stop>
        </linearGradient>
        <linearGradient x1="11.3552517%" y1="113.983154%" x2="92.1006944%" y2="-28.2725016%" id="linearGradient-3">
            <stop stop-color="#191B1C" offset="0%"></stop>
            <stop stop-color="#374043" offset="100%"></stop>
        </linearGradient>
        <linearGradient x1="29.1225056%" y1="90.9618379%" x2="68.8712321%" y2="4.35867217%" id="linearGradient-4">
            <stop stop-color="#101010" offset="0%"></stop>
            <stop stop-color="#393937" offset="100%"></stop>
        </linearGradient>
        <linearGradient x1="103.961754%" y1="26.4213672%" x2="18.317385%" y2="80.8494031%" id="linearGradient-5">
            <stop stop-color="#02B4E5" offset="0%"></stop>
            <stop stop-color="#00EFE2" offset="100%"></stop>
            <stop stop-color="#01EAE2" offset="100%"></stop>
        </linearGradient>
        <linearGradient x1="80.6322349%" y1="8.39460488%" x2="45.7715724%" y2="115.398698%" id="linearGradient-6">
            <stop stop-color="#00E3E9" offset="0%"></stop>
            <stop stop-color="#02B2E4" offset="100%"></stop>
        </linearGradient>
        <linearGradient x1="17.7883563%" y1="0%" x2="36.1221492%" y2="108.250642%" id="linearGradient-7">
            <stop stop-color="#00F5E6" offset="0%"></stop>
            <stop stop-color="#01DDEF" offset="100%"></stop>
        </linearGradient>
        <linearGradient x1="75.2949543%" y1="102.7456%" x2="29.9691886%" y2="-8.19598883%" id="linearGradient-8">
            <stop stop-color="#01BBE4" offset="0%"></stop>
            <stop stop-color="#00EFE2" offset="100%"></stop>
            <stop stop-color="#00F4E1" offset="100%"></stop>
        </linearGradient>
    </defs>
    <g id="Website" stroke="none" stroke-width="1" fill="none" fill-rule="evenodd">
        <g id="Join_us--Desktop-1170px" transform="translate(-531.000000, -813.000000)">
            <g id="//Content">
                <g id="Some-insights-of-how-we-work:">
                    <g id="Fully-Distributed">
                        <g id="Logo" transform="translate(530.000000, 812.000000)">
                            <g id="Group" stroke="url(#linearGradient-2)" stroke-dasharray="1,3">
                                <path d="M191.75,192.3125 L0.403795252,0.966295252" id="Path-2" fill="url(#linearGradient-1)"></path>
                                <path d="M381.75,192.3125 L190.403795,0.966295252" id="Path-2" fill="url(#linearGradient-1)" transform="translate(286.076898, 96.639398) scale(-1, 1) translate(-286.076898, -96.639398) "></path>
                                <path d="M191.75,412.3125 L0.403795252,220.966295" id="Path-2" fill="url(#linearGradient-1)" transform="translate(96.076898, 316.639398) scale(1, -1) translate(-96.076898, -316.639398) "></path>
                                <path d="M381.75,412.3125 L190.403795,220.966295" id="Path-2" fill="url(#linearGradient-1)" transform="translate(286.076898, 316.639398) scale(-1, -1) translate(-286.076898, -316.639398) "></path>
                                <circle id="Oval-Copy-4" fill="url(#linearGradient-3)" cx="190" cy="208" r="155"></circle>
                            </g>
                            <g id="Logo-bg" transform="translate(90.000000, 117.000000)">
                                <path d="M51.9726154,146.549624 C40.510361,135.035153 30.524871,121.067588 22.2927932,105.032174 L22.2927932,105.032174 C10.9449913,82.9556254 6.07847105,63.0599659 4.52060903,55.5746504 L4.52060903,55.5746504 C42.5469615,24.38995 89.0414909,8.26423375 100.009964,4.73985978 L100.009964,4.73985978 C111.033375,8.31230816 157.761388,24.6290228 195.503898,55.5727014 L195.503898,55.5727014 C193.932956,63.0339797 189.042237,82.8490821 177.734984,104.902893 L177.734984,104.902893 C169.457779,121.02666 159.472289,135.016313 148.057124,146.48271 L148.057124,146.48271 C134.102421,160.469765 117.941728,170.820055 100.013889,177.255529 L100.013889,177.255529 C82.0206476,170.797317 65.8606087,160.469765 51.9726154,146.549624 L51.9726154,146.549624 Z" id="Path" fill="url(#linearGradient-4)"></path>
                                <path d="M99.9996781,0.436083837 L102.961878,1.35057171 C112.118669,4.28626816 159.798902,20.5732418 197.741775,52.4716105 L199.793243,53.9271755 L199.337567,56.496217 L199.332621,56.4956028 C198.844794,60.092138 194.051236,83.1600792 181.298503,108.037343 C173.07965,124.054699 163.11167,138.001714 151.670318,149.491465 C137.55365,163.639925 121.184573,174.105253 103.017524,180.599407 L101.989317,180.95992 L100.057179,181.706127 L97.0918869,180.665736 C78.8116923,174.131048 62.441378,163.664492 48.4223991,149.550425 C36.9161276,137.932314 26.9493842,123.987141 18.796687,108.099373 C6.11876671,83.3093207 1.57190373,60.9556504 0.789774045,56.7259137 L0.325442511,54.1230933 L2.21430115,52.5360976 C40.1670666,20.5971942 87.9085097,4.28811064 97.0931235,1.34320176 L99.9996781,0.436083837 Z M51.9726154,146.549624 C65.8606087,160.469765 82.0206476,170.797317 100.013889,177.255529 C117.941728,170.820055 134.102421,160.469765 148.057124,146.48271 C159.472289,135.016313 169.457779,121.02666 177.734984,104.902893 C189.042237,82.8490821 193.932956,63.0339797 195.503898,55.5727014 C157.761388,24.6290228 111.033375,8.31230816 100.009964,4.73985978 C89.0414909,8.26423375 42.5469615,24.38995 4.52060903,55.5746504 C6.07847105,63.0599659 10.9449913,82.9556254 22.2927932,105.032174 C30.524871,121.067588 40.510361,135.035153 51.9726154,146.549624 Z" id="Combined-Shape" fill="url(#linearGradient-5)"></path>
                                <path d="M84.5137501,41.119195 C84.4483486,41.119195 54.3636916,50.6684619 54.3636916,76.7845603 C54.3636916,102.900659 83.4025798,115.568266 104.788193,115.568266 C116.419837,115.568266 125.974986,112.205656 132.277721,109.137989 C133.090007,105.435609 136.044189,96.6672267 145.817779,96.6016117 C147.560727,96.5340476 149.195763,96.8588747 150.569847,97.6384597 C157.10999,101.147242 152.858897,107.7081 152.858897,107.7081 C153.10546,107.668471 153.35464,107.622345 153.603819,107.569074 C153.852344,107.515802 154.102178,107.454085 154.353973,107.38717 C162.214571,105.28424 171.071886,96.3527941 169.535607,81.397105 C168.304098,69.4044887 157.161003,61.8028851 151.740532,58.7832924 C149.965538,57.7945187 148.804008,57.2949346 148.804008,57.2949346 C149.000212,56.076833 149.063652,55.1348345 149.063652,54.4111197 C149.063652,54.275342 149.061036,54.1480098 149.057112,54.0284734 C149.057112,52.9486353 149.057112,52.6246883 149.057112,52.6246883 C120.612226,35.484369 96.5410727,32.8439 84.6687514,32.8439 C79.5399714,32.8439 76.6655787,33.3226951 76.6655787,33.3226951 L84.5137501,41.119195 Z M144.617663,57.3599001 C144.617663,57.3599001 140.758978,56.1255571 136.835547,55.6058338 C134.87285,57.6197617 133.172413,58.4643122 132.649201,58.7248235 C132.5838,58.7891393 132.518398,58.8541047 132.518398,58.8541047 C121.073148,56.4503842 116.952859,50.6034965 116.952859,50.6034965 C127.744748,50.5391807 137.489561,53.0721824 144.617663,57.3599001 Z" id="Fill-1" fill="url(#linearGradient-6)"></path>
                                <path d="M155.278096,73.5362894 C155.278096,82.0474089 151.747072,89.9075749 145.729487,96.2741859 L145.729487,96.2741859 L145.443683,96.600962 C145.722293,96.6003123 145.889066,96.5996627 145.925691,96.5996627 L145.925691,96.5996627 C147.560727,96.5340476 149.195763,96.8588747 150.569847,97.6384597 L150.569847,97.6384597 C157.10999,101.147242 152.858897,107.7081 152.858897,107.7081 L152.858897,107.7081 C161.034075,106.408791 171.171297,97.3142823 169.535607,81.397105 L169.535607,81.397105 C168.304098,69.4044887 157.161003,61.8028851 151.740532,58.7832924 L151.740532,58.7832924 C154.070131,63.3536096 155.278096,68.3734875 155.278096,73.5362894" id="Fill-3" fill="url(#linearGradient-7)"></path>
                                <path d="M22.9062586,103.355417 C22.9062586,104.409156 22.9474615,105.412222 23.0063228,106.39255 L23.0063228,106.39255 C31.1004035,121.854969 40.8367142,135.363229 51.9726154,146.549624 L51.9726154,146.549624 C65.8606087,160.469765 82.0206476,170.797317 100.013889,177.255529 L100.013889,177.255529 C117.941728,170.820055 134.102421,160.469765 148.057124,146.48271 L148.057124,146.48271 C152.194418,142.327522 156.140086,137.836462 159.888242,133.037467 L159.888242,133.037467 C130.052111,130.907251 131.864384,112.905333 131.864384,112.905333 L131.864384,112.905333 C131.864384,112.191363 131.864384,111.476094 131.995187,110.761474 L131.995187,110.761474 C131.995187,110.761474 132.061242,110.129361 132.278375,109.137339 L132.278375,109.137339 C125.97564,112.205656 116.420491,115.568266 104.788193,115.568266 L104.788193,115.568266 C83.4025798,115.568266 54.3636916,102.900659 54.3636916,76.7845603 L54.3636916,76.7845603 C54.3636916,50.6684619 84.4483486,41.119195 84.4483486,41.119195 L84.4483486,41.119195 L84.4326523,41.1146474 C83.6700716,41.0561786 82.8525538,41.0535799 82.0938972,41.0535799 L82.0938972,41.0535799 C49.1969787,42.2236071 22.9062586,69.6383642 22.9062586,103.355417" id="Fill-7" fill="url(#linearGradient-8)"></path>
                            </g>
                        </g>
                    </g>
                </g>
            </g>
        </g>
    </g>
</svg>

<svg width="380" height="411" viewBox="0 0 380 411" xmlns="http://www.w3.org/2000/svg"><title>Logo</title><defs><linearGradient x1="14.958%" y1="0%" x2="116.401%" y2="127.873%" id="b"><stop stop-color="#F1F8F9" offset="0%"/><stop stop-color="#F7F8F9" offset="100%"/><stop stop-color="#00EFE2" offset="100%"/></linearGradient><linearGradient x1="14.958%" y1="0%" x2="116.401%" y2="127.873%" id="a"><stop stop-color="#267E8A" stop-opacity=".4" offset="0%"/><stop stop-color="#00EFE2" offset="95.851%"/><stop stop-color="#00EFE2" offset="100%"/></linearGradient><linearGradient x1="11.355%" y1="113.983%" x2="92.101%" y2="-28.273%" id="c"><stop stop-color="#191B1C" offset="0%"/><stop stop-color="#374043" offset="100%"/></linearGradient><linearGradient x1="29.123%" y1="90.962%" x2="68.871%" y2="4.359%" id="d"><stop stop-color="#101010" offset="0%"/><stop stop-color="#393937" offset="100%"/></linearGradient><linearGradient x1="103.962%" y1="26.421%" x2="18.317%" y2="80.849%" id="e"><stop stop-color="#02B4E5" offset="0%"/><stop stop-color="#00EFE2" offset="100%"/><stop stop-color="#01EAE2" offset="100%"/></linearGradient><linearGradient x1="80.632%" y1="8.395%" x2="45.772%" y2="115.399%" id="f"><stop stop-color="#00E3E9" offset="0%"/><stop stop-color="#02B2E4" offset="100%"/></linearGradient><linearGradient x1="17.788%" y1="0%" x2="36.122%" y2="108.251%" id="g"><stop stop-color="#00F5E6" offset="0%"/><stop stop-color="#01DDEF" offset="100%"/></linearGradient><linearGradient x1="75.295%" y1="102.746%" x2="29.969%" y2="-8.196%" id="h"><stop stop-color="#01BBE4" offset="0%"/><stop stop-color="#00EFE2" offset="100%"/><stop stop-color="#00F4E1" offset="100%"/></linearGradient></defs><g fill="none" fill-rule="evenodd"><g stroke="url(#a)" stroke-dasharray="1,3" transform="translate(-1 -1)"><path d="M191.75 192.313L.404.965" fill="url(#b)"/><path d="M381.75 192.313L190.404.965" fill="url(#b)" transform="matrix(-1 0 0 1 572.154 0)"/><path d="M191.75 412.313L.404 220.965" fill="url(#b)" transform="matrix(1 0 0 -1 0 633.279)"/><path d="M381.75 412.313L190.404 220.965" fill="url(#b)" transform="rotate(180 286.077 316.64)"/><circle fill="url(#c)" cx="190" cy="208" r="155"/></g><path d="M51.973 146.55c-11.463-11.515-21.448-25.482-29.68-41.518C10.945 82.956 6.078 63.06 4.52 55.575 42.547 24.39 89.04 8.265 100.01 4.74c11.023 3.572 57.751 19.889 95.494 50.833-1.571 7.461-6.462 27.276-17.769 49.33-8.277 16.124-18.263 30.113-29.678 41.58-13.955 13.987-30.115 24.337-48.043 30.773-17.993-6.459-34.153-16.786-48.041-30.706z" fill="url(#d)" transform="translate(89 116)"/><path d="M100 .436l2.962.915c9.157 2.935 56.837 19.222 94.78 51.12l2.051 1.456-.455 2.57-.005-.001c-.488 3.596-5.282 26.664-18.034 51.541-8.22 16.018-18.187 29.965-29.629 41.454-14.116 14.149-30.485 24.614-48.652 31.108l-1.029.36-1.932.747-2.965-1.04c-18.28-6.535-34.65-17.002-48.67-31.116-11.506-11.618-21.473-25.563-29.625-41.45C6.119 83.31 1.572 60.955.79 56.725l-.465-2.603 1.89-1.587C40.166 20.597 87.908 4.288 97.092 1.343L100 .436zM51.973 146.55c13.888 13.92 30.048 24.247 48.04 30.706 17.929-6.436 34.09-16.786 48.044-30.773 11.415-11.467 21.4-25.456 29.678-41.58 11.307-22.054 16.198-41.869 17.769-49.33-37.743-30.944-84.47-47.26-95.494-50.833C89.041 8.264 42.547 24.39 4.52 55.575c1.558 7.485 6.425 27.38 17.773 49.457 8.232 16.036 18.217 30.003 29.68 41.518z" fill="url(#e)" transform="translate(89 116)"/><path d="M84.514 41.12c-.066 0-30.15 9.548-30.15 35.665 0 26.116 29.039 38.783 50.424 38.783 11.632 0 21.187-3.362 27.49-6.43.812-3.702 3.766-12.47 13.54-12.536 1.743-.068 3.378.257 4.752 1.036 6.54 3.51 2.289 10.07 2.289 10.07a14.805 14.805 0 0 0 1.495-.32c7.86-2.104 16.718-11.035 15.182-25.99-1.232-11.994-12.375-19.595-17.795-22.615-1.775-.988-2.937-1.488-2.937-1.488.196-1.218.26-2.16.26-2.884 0-.136-.003-.263-.007-.383v-1.403c-28.445-17.14-52.516-19.781-64.388-19.781-5.129 0-8.003.479-8.003.479l7.848 7.796zm60.104 16.24s-3.859-1.234-7.782-1.754c-1.963 2.014-3.664 2.858-4.187 3.119l-.13.13c-11.446-2.405-15.566-8.252-15.566-8.252 10.792-.064 20.537 2.47 27.665 6.757z" fill="url(#f)" transform="translate(89 116)"/><path d="M155.278 73.536c0 8.511-3.53 16.372-9.549 22.738l-.285.327.482-.001c1.635-.066 3.27.259 4.644 1.038 6.54 3.51 2.289 10.07 2.289 10.07 8.175-1.3 18.312-10.394 16.677-26.31-1.232-11.994-12.375-19.595-17.795-22.615a32.371 32.371 0 0 1 3.537 14.753" fill="url(#g)" transform="translate(89 116)"/><path d="M22.906 103.355c0 1.054.041 2.057.1 3.038 8.094 15.462 17.83 28.97 28.967 40.157 13.888 13.92 30.048 24.247 48.04 30.706 17.929-6.436 34.09-16.786 48.044-30.773 4.137-4.155 8.083-8.647 11.831-13.446-29.836-2.13-28.024-20.132-28.024-20.132 0-.714 0-1.429.131-2.144 0 0 .066-.632.283-1.624-6.302 3.069-15.858 6.431-27.49 6.431-21.385 0-50.424-12.667-50.424-38.783 0-26.117 30.084-35.666 30.084-35.666l-.015-.004c-.763-.059-1.58-.061-2.34-.061-32.896 1.17-59.187 28.584-59.187 62.301" fill="url(#h)" transform="translate(89 116)"/></g></svg>
